X:1
T:Pere eternel, te rendons grace
T:La grace
T:Jean Crispel, 1549-1564
T:Quatriesme livre des chansons a quatre parties...Leuven 1552
%%score [ 1 2 3 4 ]
L:1/8
Q:1/4=200
M:none
K:F
V:1 treble nm="superius"
V:2 treble nm="contratenor"
V:3 treble-8 nm="tenor"
V:4 bass nm="bassus"
V:1
 F16 | G8 B12 | A2 G2 A16 | c8 c4 c4 | c8 x8 | G4 c6 B2 A8 | G4 A8 z4 x8 | A4 c4 B4 A4 | A4 A6 G2 | %9
w: Pe-|re e-|ter * nel|te ren- dons|gra-||* ce|de tout les biens,||
w: ||||||||de tout les|
 F8 z4 G4 | A6 G2 F4 G6 | F2 F8 E4 F8 | z4 c4 c6 B2 | A4 G4 x8 | F4 G4 B4 A8 | G2 F2 E4 G4 G4 x2 | %16
w: |* * * que|* nous as faict|nous in- cli-|nons de-|vers ta face *|* * * si par|
w: biens de|tout les biens *||||||
 G4 c4 c4 B8 | A8 G8 x4 | z4 A4 x8 | A4 A4 B4 d8 | c8 B4 c16 | z4 B8 B4 x4 | B8 A4 A8 | A4 G8 F8 | %24
w: ex- ces a- vons|four- faict||||nous te|pri- ons, *||
w: ||si|par ex- ces a-|vons four- faict||* * nous|te pri- ons|
 G4 B6 A2 A8 | G4 x12 | A8 z4 c4 | A4 c8 B4 x4 | G4 A4 F4 A8 | G4 z8 x6 | z16 | A8 A4 A4 | %32
w: pour tout * mal-||fait en|di- sant le|sain- cte o- rai-|son,||que ton chier|
w: ||||||||
 B4 d6 c2 A4 | B8 A4 c4 x4 | c6 c2 d4 A4 | B4 c4 A16 | z8 A8 | c6 B2 x8 | A4 F4 B2 A2 G2 F2 | %39
w: filz nous * a|fait * pour|ob- te- nir de|toy par- don,||||
w: ||||pour|ob- te-|nir de toy * * *|
 G8 A4 c4 x8 | c6 c2 B4 A4 x2 | G4 F8 E4 x2 | F16 x8 |] x16 |] %44
w: |||||
w: par- don, pour|ob- te- nir de|toy * par-|don.||
V:2
 D16 | D12 E4 x4 | F8 F8 x4 | F4 F4 A8 | G4 G4 G4 G4 | E4 G6 F2 F8 | E4 F16 x4 | z4 D4 F6 E2 | %8
w: Pere|e- ter-|nel te|ren- dons gra-|ce, * * *|||de tous les|
w: ||||* te ren- dons|gra- ce * *|||
 D4 C4 x4 | D4 F8 E4 | F4 C4 D4 E4 x2 | D4 B,4 C4 C4 x6 | C6 B,2 A,6 G,2 | F,4 C4 C4 C4 | %14
w: biens que|nous as *|fait, * * *|* nous en- cli-|nons de- vers ta|fa- ce, * *|
w: ||* que nous a|faict, * * *||* * nous en-|
 D4 E4 F4 E4 x4 | D8 G,4 C4 x2 | C4 C4 G12 | G4 E4 F4 D8 | z4 C4 x8 | C4 C4 G4 A8 | F4 G8 E8 x8 | %21
w: |* * si|par ex- ces|a- vons four- fait||||
w: nons de- vers ta|fa- ce *|||si|par ex- ces a-|vons four- faict|
 z4 G8 G4 x4 | G8 x12 | F8 z4 F8 | F4 D8 D8 | E4 F4 F8 | D8 x8 | z4 F4 C4 F8 | E4 C4 D4 E4 x4 | %29
w: nous te|pri-|ons, *||pour tout mal-|fait|en di- sant|la sain- cte o-|
w: ||* nous|te pri- ons|||||
 C4 D4 A,4 C6 | D2 E4 F4 x6 | G4 E4 D8 | F8 F4 F4 | F4 D6 E2 F8 | E4 F8 x4 | z4 F4 F6 F2 x8 | %36
w: rai- son, * *|||* que ton|chier filz * vous|at fait,|pour ob- te-|
w: * * en di-|sant la sain-|\-cte o- rai-|son * *||||
 G4 E4 F6 G2 | A8 D8 | z4 F4 F4 E4 | F6 E2 D2 C2 F8 x4 | E4 F4 A4 A6 | A2 G4 F4 _E4 D4 | C8 C16 |] %43
w: nir de toy *|par- don||||||
w: ||pour ob- te-|nir * * * *|pour ob- te- nir|de toy * * *|par- don.|
 x16 |] %44
w: |
w: |
V:3
 A16 | B8 B8 x4 | c8 c8 x4 | c4 c4 f8 | e8 z4 c4 | c4 G4 A4 c6 x2 | B2 B2 AB c4 A4 c6 x4 | %7
w: Pere|e- ter-|nel te|ren- dons gra-|ce *||* * * * * de tout|
w: ||||* te|ren- dons grace *||
 B2 A4 G4 F6 | G2 A8 x2 | z4 A4 c6 B2 | A4 A4 B4 G2 A2 x2 | B2 A2 G2 F2 G8 x6 | F16 | z4 F4 F4 G4 | %14
w: les biens que nous|as fait|||||nous in- cli-|
w: ||de tous les|biens que nous * *|* * * * as|faict||
 A4 c4 d4 c6 x2 | BA B4 c4 e4 e4 | e4 c4 e8 x4 | d6 c2 c4 B4 x4 | c4 c4 f4 x4 | f4 d4 f6 e2 x4 | %20
w: nons de- vers ta|* * * face, si par|ex- ces a-|vons * * four-|fait * *||
w: ||||* si par|ex- ces a- *|
 d2 c2 d8 x4 x12 | c8 z4 _e8 | _e4 e8 x8 | d8 z4 c8 | d4 B8 A4 x4 | A4 c4 d6 c2 | A4 B8 x4 | %27
w: |* nous|te pri-|ons, *||pour tout mal- *||
w: vons * four-|faict *||* nous|te pri- ons|||
 A16 x4 | z16 x4 | z8 z4 c4 x2 | A4 c8 B4 | G4 A4 B4 G4 | z4 c4 c4 c4 | d4 B6 c2 d8 | %34
w: fait||en|di- sant la|saincte o- rai- son|que ton chier|filz nous * *|
w: |||||||
 c2 B2 c8- x4 | c8 z8 x8 | z4 c4 c6 c2 | d4 A4 B4 d4 | c4 c4 c6 c2 | d4 A4 B4 d4 x8 | c8 F4 c4 x2 | %41
w: at * fait,||pour ob- te-|nir de toy par-|don, * * *|||
w: ||||* pour ob- te-|nir de toy par-|don, * pour|
 f6 e2 d6 c2 x2 | B4 A4 G8 x8 |] F16 |] %44
w: |||
w: ob- te- nir de|toy * par-|don.|
V:4
 D,16 | G,8 G,8 x4 | F,8 F,8 x4 | F,4 F,4 F,2 G,2 A,2 B,2 | C8 C,8 | C,4 C,4 F,8 x4 | G,8 F,16 | %7
w: Pere|e- ter-|nel te|ren- dons gra- * * *|* ce,|ren- dons gra|* ce.|
w: |||||||
 z8 z4 D,4 | F,6 E,2 x4 | D,8 z4 C,4 | F,6 E,2 D,4 C,4 x2 | B,,4 D,4 C,8 x6 | z4 C4 C6 B,2 | %13
w: de|tout les|biens *|* * * que|nous a fait,|nous en- cli-|
w: ||* de|tout les biens *|||
 A,6 G,2 F,4 E,4 | D,4 C,4 B,,4 C,4 x4 | D,8 C,8 x2 | z4 C,4 C,4 C,4 x4 | G,8 A,4 F,4 x4 | %18
w: nons de- vers ta|face * * *||si par ex-|ces a- vons|
w: |||||
 G,8 A,4 F,4 | F,4 F,4 G,4 D,4 x4 | A,8 G,8 x12 | C,8 z4 _E,8 | _E,4 E,8 x8 | B,,8 z4 F,8 | %24
w: four- fait, *|||* nous|te pri-|ons, pour|
w: * * si|par ex- ces a-|vons four-|faict *|||
 F,4 G,8 D,8 | C,4 B,,4 F,8 | G,8 x8 | F,16 x4 | z4 z16 | F,4 D,4 F,8 x2 | E,4 C,4 D,4 x4 | %31
w: tous mal- fait,|||||en di- sant|la sain- cte|
w: |pour tout mal||faict||||
 E,4 C,4 G,8 | F,8 F,4 F,4 | B,6 A,2 G,4 F,4 x4 | G,8 F,8- | F,8 z16 | F,8 F,6 F,2 | %37
w: o- rai- son|que son chier|filz * * nous|at fait,||pour ob- te-|
w: ||||||
 G,4 D,4 F,6 G,2 | A,8 x8 | D,8 z16 | z4 F,4 F,6 F,2 x2 | G,4 D,4 _E,4 F,4 x2 | C,8 F,16 |] x16 |] %44
w: nir de toy *|par-|don,|||||
w: |||pour ob- te-|nir de toy *|par- don.||

